X:1
T:Tartu, 86.86.88.86
T:Tartu, 86.86.88.86
T:Hubert Platt Main, 1890
T:Public Domain Courtesy of the Cyber Hymnal™
C:Hubert Platt Main, 1890
Z:Public Domain
Z:Courtesy of the Cyber Hymnal™
%%score ( 1 2 ) ( 3 4 )
L:1/8
Q:1/4=90
M:3/4
K:Eb
V:1 treble 
V:2 treble 
V:3 bass 
V:4 bass 
V:1
 [EB] | [EB][Ec] [EB]3 [EG] | [FA][DF] [EG]3 E | [EA][Ec] [Ee]3 [Ec] | [EB]4 z [Ec] | %5
 [=Ec][EG] [FA]3 [FB] | [FB][DF] [EG]3 [Ge] | [Fd]3 [DB] [EG][E=A] | [DB]4 [GB]2 | %9
 [FA]3 [Ac] [GB][FA] | [EG][FA] [GB]2 E2 | [Ec]3 [Ee] [Ed][Ec] | [EB][Ge] [GB]2 z [EG] | %13
 [FA][GB] [EG]3 [Ge] | [Fd][E_d] [Ec]3 [Fe] | [Ge]3 [EB] [DA][DF] | E4 z |] %17
V:2
 x | x6 | x5 E | x6 | x6 | x6 | x6 | x6 | x6 | x6 | x4 E2 | x6 | x6 | x6 | x6 | x6 | E4 x |] %17
V:3
 [E,G,] | [E,G,][E,A,] [E,G,]3 [E,B,] | [B,,B,][B,,B,] [E,B,]3 [E,G,] | %3
 [C,A,][A,,A,] [A,,C]3 [C,A,] | [E,G,]4 z [C,G,] | [C,G,][C,C] [F,C]3 [D,B,] | %6
 [D,B,][B,,B,] [E,B,]3 [E,B,] | [F,B,]3 [F,B,] [F,C][F,C] | [B,,B,]4 z2 | %9
 z [B,,B,] [B,,B,][B,,B,] [D,B,][D,B,] | [E,B,][E,B,] [E,E]2 z2 | z A, A,[A,C] [A,,B,][A,,A,] | %12
 [E,G,][E,B,] [E,E]2 z [E,B,] | [B,,B,][B,,B,] [E,B,]3 [E,B,] | [F,B,][G,B,] A,3 [=A,C] | %15
 B,3 [B,,G,] [B,,F,][B,,A,] | [E,G,]4 z |] %17
V:4
 x | x6 | x6 | x6 | x6 | x6 | x6 | x6 | x6 | x6 | x6 | x A, A, x3 | x6 | x6 | x2 =A,3 x | B,3 x3 | %16
 x5 |] %17

